X:1
T:He Changes Not
T:He Changes Not
T:Edmund Simon Lorenz
T:Kathleen R. Wheeler, 1915
T:Public Domain Courtesy of the Cyber Hymnal™
T:Public Domain Courtesy of the Cyber Hymnal™
C:Edmund Simon Lorenz
Z:Public Domain
Z:Courtesy of the Cyber Hymnal™
%%score ( 1 2 ) ( 3 4 )
L:1/8
Q:1/4=100
M:4/4
K:Eb
V:1 treble 
V:2 treble 
V:3 bass 
V:4 bass 
V:1
 [GB]2 [GB]>[GB] [FA]2 [EG]2 | [EG]4 [EF]4 | [DA]2 [DA]>[DA] [DG]2 [DF]2 | E8 | %4
w: 1.~Scenes of the world are|shift- ing,|Friends are in time for-|got;|
w: 2.~Win- ter gives place to|spring- time,|Winds blow both cold and|hot;|
w: 3.~Dai- ly we grieve and|won- der,|O- ver man’s chang- ing|lot;|
w: 4.~How could we live each|mo- ment,|If ev- er we for-|got|
 [CE]2 [CA]>[DB] [Ec]2 [Ee]2 | [Ee]4 [Ec]4 | [DB]4 [E=A]2 [EA]2 | [DB]6 z2 || %8
w: But tho’ the mount- ains|crum- ble,|He chang- es|not.|
w: On- ly our God is|sta- ble—|He chang- es|not.|
w: On- ly our God re-|main- eth,|He chang- es|not.|
w: The lov- ing God a-|bove us,|Who chang- eth|not.|
"^Refrain" B4 ([EG]/[EG]/[EG] [EG]) [Gce]2 [Gce]2 | d6 ([G_B]/[GB]/[GB][GB] [GB]2 [F=Bd]2) | %10
w: ||
w: ||
w: He chang- * * * es not!|* He * * * * *|
w: ||
 c4 ([EA]/[EA]/[EA] [EA]) [EBd]2 [Ac]2 | [EGB]6 z2 | [GB]2 [EG]>[DA] [EB]2 [F=B]2 | %13
w: |||
w: |||
w: * chang- * * * es not!||Love Him who fail- eth|
w: |||
 ([Ec]2 [Ad]2) !fermata![Ee]2 [FA]2 | [EG]4 [DF]4 | E6 z2 |] %16
w: |||
w: |||
w: ne- * ver— He|chang- es|not.|
w: |||
V:2
 x8 | x8 | x8 | (C4 _D4) | x8 | x8 | x8 | x8 || [EG] x10 | [G=B] x12 | [EA] x10 | x8 | x8 | x8 | %14
 x8 | E6 x2 |] %16
V:3
 [E,B,]2 [E,B,]>[E,B,] [E,B,]2 [E,B,]2 | [A,,C]4 [A,,C]4 | %2
 [B,,F,]2 [B,,F,]>[B,,F,] [B,,G,]2 [=B,,A,]2 | G,8 | [A,,A,]2 [A,,A,]>[A,,A,] A,2 [A,C]2 | %5
 [G,B,]4 [E,G,]4 | F,4 [F,C]2 [F,C]2 | [B,,B,]6 z2 || (E,,G,,/B,,/E,B,,) [C,,C,]4 x3 | %9
 (G,,B,,/D,/G,D, G,2 G,,2) x5 | (A,,C,/E,/A,E,) A,2 A,,2 x3 | (E,,G,,/B,,/E,F, G,2 B,,2) | %12
 [E,B,]2 [E,B,]>[F,B,] [G,B,]2 [G,D]2 | ([A,C]2 [F,B,]2) [G,B,]2 [A,C]2 | B,4 [B,,A,]4 | %15
 [E,G,]6 z2 |] %16
V:4
 x8 | x8 | x8 | (C,4 B,,4) | x4 A,2 x2 | x8 | F,4 x4 | x8 || E,,6 x5 | G,,6 x7 | A,,6 x5 | x8 | %12
 x8 | x8 | B,4 x4 | x8 |] %16

